static/assets/template/assets/img/icons/essential/detailed/Currency.svg

<svg height="146" viewBox="0 0 144 146" width="144" xmlns="http://www.w3.org/2000/svg"><g fill="none" fill-rule="evenodd" transform="translate(1 2)"><circle cx="75.3" cy="72.8" fill-rule="nonzero" r="61.2"/><circle cx="77.2" cy="74.7" fill="#c4e0ff" fill-rule="nonzero" r="59.3"/><g fill-rule="nonzero" transform="translate(58 39)"><path d="m16.1 65.5c-2.1 0-3.8-1.7-3.8-3.8v-3.8c-2.9-.2-5.9-1-8.4-2.1-1.9-.9-2.9-3.1-2.1-5.1.6-1.7 2.1-2.8 3.9-2.8.6 0 1.2.1 1.7.4 1.7.8 4.3 1.7 7.5 1.7 4.4 0 7.3-2.3 7.3-5.8 0-3.1-2.2-5.3-7.4-7.4-6.8-2.7-13.2-6.3-13.2-14.2 0-6.5 4.3-11.6 11.2-13.2v-4c0-2.1 1.7-3.8 3.8-3.8s3.8 1.7 3.8 3.8v3.5c2.3.2 4.5.7 6.5 1.5s3 3.2 2.2 5.2c-.6 1.6-2.1 2.6-3.8 2.6-.5 0-1.1-.1-1.6-.3-1.9-.8-4.1-1.2-6.3-1.2-4.7 0-6.4 2.5-6.4 4.9 0 2.8 1.9 4.4 8.3 7.1 8.7 3.5 12.4 8 12.4 14.9 0 6.7-4.6 12.2-11.7 13.8v4.2c0 2.2-1.7 3.9-3.9 3.9z"/><path d="m16.6 3.2c1.3 0 2.3 1 2.3 2.3v4.9c3.1.1 5.5.7 7.4 1.5 1.3.5 1.9 2 1.4 3.3-.4 1-1.4 1.7-2.4 1.7-.3 0-.7-.1-1-.2-1.7-.7-4-1.3-6.9-1.3-5.7 0-7.9 3.4-7.9 6.4 0 3.9 2.7 5.8 9.2 8.4 7.6 3.1 11.5 7 11.5 13.6 0 5.8-4.1 11.3-11.7 12.6v5.4c0 1.3-1 2.3-2.3 2.3h-.1c-1.3 0-2.3-1-2.3-2.3v-5.2c-3.3-.1-6.7-.9-9.2-2.1-1.2-.6-1.8-2-1.4-3.3.4-1.1 1.4-1.7 2.4-1.7.4 0 .7.1 1.1.2 2.3 1.1 5.2 1.8 8.2 1.8 5.3 0 8.8-3 8.8-7.3 0-4.1-2.9-6.6-8.4-8.8-7.6-3-12.2-6.4-12.2-12.8 0-6.1 4.4-10.8 11.2-11.9v-5.2c0-1.2 1.1-2.3 2.3-2.3zm0-3c-2.9 0-5.3 2.4-5.3 5.3v2.8c-6.9 2-11.2 7.4-11.2 14.3 0 8.9 7.1 12.9 14.1 15.6 6 2.4 6.5 4.4 6.5 6 0 2.9-2.9 4.3-5.8 4.3s-5.4-.8-6.9-1.5c-.7-.3-1.5-.5-2.3-.5-2.4 0-4.5 1.5-5.3 3.7v.1c-1 2.7.3 5.7 2.9 7 2.2 1 4.8 1.8 7.5 2.1v2.4c0 2.9 2.4 5.3 5.3 5.3h.1c2.9 0 5.3-2.4 5.3-5.3v-3c7.1-2.1 11.7-7.9 11.7-15 0-9.6-7.1-13.8-13.3-16.3-6.8-2.8-7.3-4.1-7.3-5.7 0-2.1 1.8-3.4 4.9-3.4 2.1 0 4 .4 5.8 1.1.7.3 1.4.4 2.1.4 2.4 0 4.4-1.4 5.2-3.6 1.1-2.8-.3-6-3.1-7.2-1.7-.7-3.5-1.2-5.5-1.5v-2.1c-.1-2.9-2.4-5.3-5.4-5.3z"/></g><path d="m48.7 129.8c0 .1-.1.1-.1.1-6.3 8.4-17.3 13.1-27.7 11.5-12-1.7-20-12.4-20.3-24.2-.2-8.8 4.3-16.7 10.2-23l-7.5-6.4c-1.3-1.1-.8-3.1.8-3.5l39.3-10c1.5-.4 3 .9 2.8 2.4l-3.9 40.4c-.2 1.6-2.1 2.4-3.4 1.4l-5.1-4.4c-1.1 4.5 3.2 10.5 10.9 12.4l.8.2" fill-rule="nonzero"/><path d="m91.6 14.1 1.5-2c6.3-8.4 17.3-13.1 27.7-11.5 12 1.7 20 12.4 20.3 24.2.2 8.8-4.3 16.7-10.2 23l7.5 6.4c1.3 1.1.8 3.1-.8 3.5l-39.3 10c-1.5.4-3-.9-2.8-2.4l3.9-40.4c.2-1.6 2.1-2.4 3.4-1.4l5.1 4.4c1.2-4.9-4-11.5-12.8-12.8" fill-rule="nonzero"/><path d="m48.7 129.8c0 .1-.1.1-.1.1-6.3 8.4-17.3 13.1-27.7 11.5-12-1.7-20-12.4-20.3-24.2-.2-8.8 4.3-16.7 10.2-23l-7.5-6.4c-1.3-1.1-.8-3.1.8-3.5l39.3-10c1.5-.4 3 .9 2.8 2.4l-3.9 40.4c-.2 1.6-2.1 2.4-3.4 1.4l-5.1-4.4c-1.1 4.5 3.2 10.5 10.9 12.4l.8.2" fill-rule="nonzero"/><path d="m91.6 14.1 1.5-2c6.3-8.4 17.3-13.1 27.7-11.5 12 1.7 20 12.4 20.3 24.2.2 8.8-4.3 16.7-10.2 23l7.5 6.4c1.3 1.1.8 3.1-.8 3.5l-39.3 10c-1.5.4-3-.9-2.8-2.4l3.9-40.4c.2-1.6 2.1-2.4 3.4-1.4l5.1 4.4c1.2-4.9-4-11.5-12.8-12.8" fill-rule="nonzero"/><g stroke-linecap="round" stroke-linejoin="round" stroke-width="3"><path d="m44.4 134.5c-6.4 5.5-15.1 8.3-23.5 7.1-12-1.7-20-12.4-20.3-24.2-.2-8.8 4.3-16.7 10.2-23l-7.5-6.4c-1.3-1.1-.8-3.1.8-3.5l39.3-10c1.5-.4 3 .9 2.8 2.4l-3.9 40.4c-.2 1.6-2.1 2.4-3.4 1.4l-5.1-4.4c-1.1 4.5 3.2 10.5 10.9 12.4l.8.2"/><path d="m137.1 39.4c-1.7 3-3.8 5.8-6.2 8.3l7.5 6.4c1.3 1.1.8 3.1-.8 3.5l-39.3 10c-1.5.4-3-.9-2.8-2.4l3.9-40.4c.2-1.6 2.1-2.4 3.4-1.4l5.1 4.4c1.2-4.9-4-11.5-12.8-12.8"/><path d="m129 3.4c7.3 4.3 11.9 12.5 12.1 21.3 0 1.4-.1 2.8-.3 4.2"/><path d="m91.6 14.1 1.5-2c5.3-7.1 14-11.5 22.8-11.8"/><path d="m134.3 58.5c1.1 4.6 1.7 9.5 1.7 14.4 0 33.8-27.4 61.2-61.2 61.2-15.4 0-29.5-5.7-40.3-15.1"/><path d="m76.6 11.8c9.5.3 18.4 2.7 26.3 6.7l.8.4"/><path d="m65.3 12.5c1.4-.2 2.9-.4 4.4-.5"/><path d="m14.4 81.8c-.4-2.9-.6-5.9-.6-8.9 0-27.4 18-50.6 42.8-58.4"/><path d="m29.9 77.9c-.2-1.6-.3-3.3-.3-5 0-25 20.3-45.3 45.3-45.3 8.6 0 16.6 2.4 23.5 6.6"/><path d="m120.2 74.7c-.9 24.2-20.9 43.5-45.3 43.5-12.2 0-23.2-4.8-31.3-12.6"/></g></g></svg>

<?xml version="1.0" encoding="UTF-8"?>
<svg width="144px" height="146px" viewBox="0 0 144 146" version="1.1" xmlns="http://www.w3.org/2000/svg" xmlns:xlink="http://www.w3.org/1999/xlink">
    <!-- Generator: Sketch 51.2 (57519) - http://www.bohemiancoding.com/sketch -->
    <title>Currency</title>
    <desc>Created with Sketch.</desc>
    <defs></defs>
    <g id="Page-1" stroke="none" stroke-width="1" fill="none" fill-rule="evenodd">
        <g id="Currency" transform="translate(1.000000, 2.000000)">
            <circle id="Oval" class="fill-neutral" fill-rule="nonzero" cx="75.3" cy="72.8" r="61.2"></circle>
            <circle id="Oval" fill="#C4E0FF" fill-rule="nonzero" cx="77.2" cy="74.7" r="59.3"></circle>
            <g id="Group" transform="translate(58.000000, 39.000000)" fill-rule="nonzero">
                <path d="M16.1,65.5 C14,65.5 12.3,63.8 12.3,61.7 L12.3,57.9 C9.4,57.7 6.4,56.9 3.9,55.8 C2,54.9 1,52.7 1.8,50.7 C2.4,49 3.9,47.9 5.7,47.9 C6.3,47.9 6.9,48 7.4,48.3 C9.1,49.1 11.7,50 14.9,50 C19.3,50 22.2,47.7 22.2,44.2 C22.2,41.1 20,38.9 14.8,36.8 C8,34.1 1.6,30.5 1.6,22.6 C1.6,16.1 5.9,11 12.8,9.4 L12.8,5.4 C12.8,3.3 14.5,1.6 16.6,1.6 C18.7,1.6 20.4,3.3 20.4,5.4 L20.4,8.9 C22.7,9.1 24.9,9.6 26.9,10.4 C28.9,11.2 29.9,13.6 29.1,15.6 C28.5,17.2 27,18.2 25.3,18.2 C24.8,18.2 24.2,18.1 23.7,17.9 C21.8,17.1 19.6,16.7 17.4,16.7 C12.7,16.7 11,19.2 11,21.6 C11,24.4 12.9,26 19.3,28.7 C28,32.2 31.7,36.7 31.7,43.6 C31.7,50.3 27.1,55.8 20,57.4 L20,61.6 C20,63.8 18.3,65.5 16.1,65.5 Z" id="Shape" class="fill-neutral"></path>
                <path d="M16.6,3.2 C17.9,3.2 18.9,4.2 18.9,5.5 L18.9,10.4 C22,10.5 24.4,11.1 26.3,11.9 C27.6,12.4 28.2,13.9 27.7,15.2 C27.3,16.2 26.3,16.9 25.3,16.9 C25,16.9 24.6,16.8 24.3,16.7 C22.6,16 20.3,15.4 17.4,15.4 C11.7,15.4 9.5,18.8 9.5,21.8 C9.5,25.7 12.2,27.6 18.7,30.2 C26.3,33.3 30.2,37.2 30.2,43.8 C30.2,49.6 26.1,55.1 18.5,56.4 L18.5,61.8 C18.5,63.1 17.5,64.1 16.2,64.1 L16.1,64.1 C14.8,64.1 13.8,63.1 13.8,61.8 L13.8,56.6 C10.5,56.5 7.1,55.7 4.6,54.5 C3.4,53.9 2.8,52.5 3.2,51.2 C3.6,50.1 4.6,49.5 5.6,49.5 C6,49.5 6.3,49.6 6.7,49.7 C9,50.8 11.9,51.5 14.9,51.5 C20.2,51.5 23.7,48.5 23.7,44.2 C23.7,40.1 20.8,37.6 15.3,35.4 C7.7,32.4 3.1,29 3.1,22.6 C3.1,16.5 7.5,11.8 14.3,10.7 L14.3,5.5 C14.3,4.3 15.4,3.2 16.6,3.2 Z M16.6,0.2 C13.7,0.2 11.3,2.6 11.3,5.5 L11.3,8.3 C4.4,10.3 0.1,15.7 0.1,22.6 C0.1,31.5 7.2,35.5 14.2,38.2 C20.2,40.6 20.7,42.6 20.7,44.2 C20.7,47.1 17.8,48.5 14.9,48.5 C12,48.5 9.5,47.7 8,47 C7.3,46.7 6.5,46.5 5.7,46.5 C3.3,46.5 1.2,48 0.4,50.2 L0.4,50.3 C-0.6,53 0.7,56 3.3,57.3 C5.5,58.3 8.1,59.1 10.8,59.4 L10.8,61.8 C10.8,64.7 13.2,67.1 16.1,67.1 L16.2,67.1 C19.1,67.1 21.5,64.7 21.5,61.8 L21.5,58.8 C28.6,56.7 33.2,50.9 33.2,43.8 C33.2,34.2 26.1,30 19.9,27.5 C13.1,24.7 12.6,23.4 12.6,21.8 C12.6,19.7 14.4,18.4 17.5,18.4 C19.6,18.4 21.5,18.8 23.3,19.5 C24,19.8 24.7,19.9 25.4,19.9 C27.8,19.9 29.8,18.5 30.6,16.3 C31.7,13.5 30.3,10.3 27.5,9.1 C25.8,8.4 24,7.9 22,7.6 L22,5.5 C21.9,2.6 19.6,0.2 16.6,0.2 Z" id="Shape" class="fill-primary"></path>
            </g>
            <path d="M48.7,129.8 C48.7,129.9 48.6,129.9 48.6,129.9 C42.3,138.3 31.3,143 20.9,141.4 C8.9,139.7 0.9,129 0.6,117.2 C0.4,108.4 4.9,100.5 10.8,94.2 L3.3,87.8 C2,86.7 2.5,84.7 4.1,84.3 L43.4,74.3 C44.9,73.9 46.4,75.2 46.2,76.7 L42.3,117.1 C42.1,118.7 40.2,119.5 38.9,118.5 L33.8,114.1 C32.7,118.6 37,124.6 44.7,126.5 L45.5,126.7" id="Shape" class="fill-neutral" fill-rule="nonzero"></path>
            <path d="M91.6,14.1 L93.1,12.1 C99.4,3.7 110.4,-1 120.8,0.6 C132.8,2.3 140.8,13 141.1,24.8 C141.3,33.6 136.8,41.5 130.9,47.8 L138.4,54.2 C139.7,55.3 139.2,57.3 137.6,57.7 L98.3,67.7 C96.8,68.1 95.3,66.8 95.5,65.3 L99.4,24.9 C99.6,23.3 101.5,22.5 102.8,23.5 L107.9,27.9 C109.1,23 103.9,16.4 95.1,15.1" id="Shape" class="fill-neutral" fill-rule="nonzero"></path>
            <path d="M48.7,129.8 C48.7,129.9 48.6,129.9 48.6,129.9 C42.3,138.3 31.3,143 20.9,141.4 C8.9,139.7 0.9,129 0.6,117.2 C0.4,108.4 4.9,100.5 10.8,94.2 L3.3,87.8 C2,86.7 2.5,84.7 4.1,84.3 L43.4,74.3 C44.9,73.9 46.4,75.2 46.2,76.7 L42.3,117.1 C42.1,118.7 40.2,119.5 38.9,118.5 L33.8,114.1 C32.7,118.6 37,124.6 44.7,126.5 L45.5,126.7" id="Shape" class="fill-primary-500" fill-rule="nonzero"></path>
            <path d="M91.6,14.1 L93.1,12.1 C99.4,3.7 110.4,-1 120.8,0.6 C132.8,2.3 140.8,13 141.1,24.8 C141.3,33.6 136.8,41.5 130.9,47.8 L138.4,54.2 C139.7,55.3 139.2,57.3 137.6,57.7 L98.3,67.7 C96.8,68.1 95.3,66.8 95.5,65.3 L99.4,24.9 C99.6,23.3 101.5,22.5 102.8,23.5 L107.9,27.9 C109.1,23 103.9,16.4 95.1,15.1" id="Shape" class="fill-primary-500" fill-rule="nonzero"></path>
            <path d="M44.4,134.5 C38,140 29.3,142.8 20.9,141.6 C8.9,139.9 0.9,129.2 0.6,117.4 C0.4,108.6 4.9,100.7 10.8,94.4 L3.3,88 C2,86.9 2.5,84.9 4.1,84.5 L43.4,74.5 C44.9,74.1 46.4,75.4 46.2,76.9 L42.3,117.3 C42.1,118.9 40.2,119.7 38.9,118.7 L33.8,114.3 C32.7,118.8 37,124.8 44.7,126.7 L45.5,126.9" id="Shape" class="stroke-primary" stroke-width="3" stroke-linecap="round" stroke-linejoin="round"></path>
            <path d="M137.1,39.4 C135.4,42.4 133.3,45.2 130.9,47.7 L138.4,54.1 C139.7,55.2 139.2,57.2 137.6,57.6 L98.3,67.6 C96.8,68 95.3,66.7 95.5,65.2 L99.4,24.8 C99.6,23.2 101.5,22.4 102.8,23.4 L107.9,27.8 C109.1,22.9 103.9,16.3 95.1,15" id="Shape" class="stroke-primary" stroke-width="3" stroke-linecap="round" stroke-linejoin="round"></path>
            <path d="M129,3.4 C136.3,7.7 140.9,15.9 141.1,24.7 C141.1,26.1 141,27.5 140.8,28.9" id="Shape" class="stroke-primary" stroke-width="3" stroke-linecap="round" stroke-linejoin="round"></path>
            <path d="M91.6,14.1 L93.1,12.1 C98.4,5 107.1,0.6 115.9,0.3" id="Shape" class="stroke-primary" stroke-width="3" stroke-linecap="round" stroke-linejoin="round"></path>
            <path d="M134.3,58.5 C135.4,63.1 136,68 136,72.9 C136,106.7 108.6,134.1 74.8,134.1 C59.4,134.1 45.3,128.4 34.5,119" id="Shape" class="stroke-primary" stroke-width="3" stroke-linecap="round" stroke-linejoin="round"></path>
            <path d="M76.6,11.8 C86.1,12.1 95,14.5 102.9,18.5 L103.7,18.9" id="Shape" class="stroke-primary" stroke-width="3" stroke-linecap="round" stroke-linejoin="round"></path>
            <path d="M65.3,12.5 C66.7,12.3 68.2,12.1 69.7,12" id="Shape" class="stroke-primary" stroke-width="3" stroke-linecap="round" stroke-linejoin="round"></path>
            <path d="M14.4,81.8 C14,78.9 13.8,75.9 13.8,72.9 C13.8,45.5 31.8,22.3 56.6,14.5" id="Shape" class="stroke-primary" stroke-width="3" stroke-linecap="round" stroke-linejoin="round"></path>
            <path d="M29.9,77.9 C29.7,76.3 29.6,74.6 29.6,72.9 C29.6,47.9 49.9,27.6 74.9,27.6 C83.5,27.6 91.5,30 98.4,34.2" id="Shape" class="stroke-primary" stroke-width="3" stroke-linecap="round" stroke-linejoin="round"></path>
            <path d="M120.2,74.7 C119.3,98.9 99.3,118.2 74.9,118.2 C62.7,118.2 51.7,113.4 43.6,105.6" id="Shape" class="stroke-primary" stroke-width="3" stroke-linecap="round" stroke-linejoin="round"></path>
        </g>
    </g>
</svg>
